X:1
T:Condon's Frolics
T:Castletown Conners
R:jig
H:Also played in Bdor, #346, or Edor, #356.
H:Sometimes played with 2nd part first.
D:Paddy Keenan: Port an Phiobaire
Z:id:hn-jig-154
M:6/8
K:Ador
eAB c2d|edc BAG|eAB c2d|e2d eag|eAB c2d|edc BAG|GBd gdB|ABA ABd:|
eaa efg|dec BAG|cBc dcd|e2d efg|eaa efg|dec BAB|GBd gdB|ABA ABd:|

